icons/Ground_area.svg

<svg width="16" height="16" viewBox="0 0 16 16" fill="currentColor" xmlns="http://www.w3.org/2000/svg">
<g clip-path="url(#clip0_4_1789)">
<path d="M0.8103 14.4268C0.714163 14.4268 0.636337 14.3572 0.636337 14.2712V2.15559C0.640915 2.06961 0.718741 2 0.8103 2C0.901859 2 0.984263 2.06961 0.984263 2.15559V14.2753C0.984263 14.3613 0.906437 14.4309 0.8103 14.4309V14.4268Z" fill="#3D3D3D"/>
<path d="M1.41002 3.12598C1.35508 3.12598 1.30015 3.10141 1.2681 3.05637L0.668386 2.23747C0.618029 2.16787 0.640919 2.0696 0.718744 2.02456C0.801148 1.97952 0.906441 1.99999 0.956798 2.0696L1.55193 2.8885C1.60229 2.9581 1.5794 3.05637 1.50158 3.10141C1.47411 3.11779 1.44206 3.12598 1.41002 3.12598Z" fill="#3D3D3D"/>
<path d="M0.169373 3.12633C0.137328 3.12633 0.105282 3.11814 0.0778139 3.10176C-1.15395e-05 3.05672 -0.0229014 2.95846 0.0274563 2.88885L0.622592 2.06995C0.67295 2.00035 0.778243 1.97987 0.860646 2.02491C0.938472 2.06995 0.961362 2.16822 0.911004 2.23783L0.315868 3.05672C0.283822 3.10176 0.228887 3.12633 0.173951 3.12633H0.169373Z" fill="#3D3D3D"/>
<path d="M15.7848 14.4268H2.73762C2.64149 14.4268 2.56366 14.3572 2.56366 14.2712C2.56366 14.1852 2.64149 14.1156 2.73762 14.1156H15.7848C15.881 14.1156 15.9588 14.1852 15.9588 14.2712C15.9588 14.3572 15.881 14.4268 15.7848 14.4268Z" fill="#3D3D3D"/>
<path d="M14.9104 15C14.8555 15 14.8052 14.9754 14.7685 14.9345C14.7136 14.8649 14.7319 14.7707 14.8097 14.7216L15.7253 14.1483C15.8031 14.0992 15.9084 14.1156 15.9634 14.1852C16.0183 14.2548 16 14.349 15.9222 14.3981L15.0066 14.9713C14.9745 14.9918 14.9425 15 14.9104 15Z" fill="#3D3D3D"/>
<path d="M15.826 14.4268C15.794 14.4268 15.7574 14.4186 15.7299 14.3981L14.8143 13.8249C14.7365 13.7758 14.7182 13.6816 14.7731 13.612C14.828 13.5424 14.9333 13.526 15.0112 13.5751L15.9268 14.1483C16.0046 14.1975 16.0229 14.2917 15.968 14.3613C15.9359 14.4022 15.881 14.4268 15.826 14.4268Z" fill="#3D3D3D"/>
<path d="M2.54993 2.30709H1.63434C1.5382 2.30709 1.46037 2.23748 1.46037 2.1515C1.46037 2.06551 1.54278 2 1.63434 2H2.54993C2.64607 2 2.72389 2.06961 2.72389 2.15559C2.72389 2.24157 2.64607 2.31118 2.54993 2.31118V2.30709Z" fill="#3D3D3D"/>
<path d="M12.7542 2.30709H11.4815C11.3854 2.30709 11.3076 2.23748 11.3076 2.1515C11.3076 2.06551 11.3854 2 11.4815 2H12.7542C12.8504 2 12.9282 2.06961 12.9282 2.15559C12.9282 2.24157 12.8504 2.31118 12.7542 2.31118V2.30709ZM10.2043 2.30709H8.93162C8.83548 2.30709 8.75765 2.23748 8.75765 2.1515C8.75765 2.06551 8.83548 2 8.93162 2H10.2043C10.3004 2 10.3783 2.06961 10.3783 2.15559C10.3783 2.24157 10.3004 2.31118 10.2043 2.31118V2.30709ZM7.65436 2.30709H6.38169C6.28555 2.30709 6.20773 2.23748 6.20773 2.1515C6.20773 2.06551 6.29013 2 6.38169 2H7.65436C7.7505 2 7.82833 2.06961 7.82833 2.15559C7.82833 2.24157 7.7505 2.31118 7.65436 2.31118V2.30709ZM5.10444 2.30709H3.83176C3.73562 2.30709 3.6578 2.23748 3.6578 2.1515C3.6578 2.06551 3.7402 2 3.83634 2H5.10901C5.20515 2 5.28298 2.06961 5.28298 2.15559C5.28298 2.24157 5.20515 2.31118 5.10901 2.31118L5.10444 2.30709Z" fill="#3D3D3D"/>
<path d="M14.9608 2.30709H14.0452C13.9491 2.30709 13.8712 2.23748 13.8712 2.1515C13.8712 2.06551 13.9491 2 14.0452 2H14.9608C15.0569 2 15.1348 2.06961 15.1348 2.15559C15.1348 2.24157 15.0569 2.31118 14.9608 2.31118V2.30709Z" fill="#3D3D3D"/>
<path d="M15.826 3.16692C15.7299 3.16692 15.6521 3.09732 15.6521 3.01133V2.19653C15.6521 2.11055 15.7299 2.04094 15.826 2.04094C15.9222 2.04094 16 2.11055 16 2.19653V3.01543C16 3.10141 15.9222 3.17102 15.826 3.17102V3.16692Z" fill="#3D3D3D"/>
<path d="M15.826 11.925C15.7299 11.925 15.6521 11.8554 15.6521 11.7694V10.6762C15.6521 10.5902 15.7299 10.5206 15.826 10.5206C15.9222 10.5206 16 10.5902 16 10.6762V11.7694C16 11.8554 15.9222 11.925 15.826 11.925ZM15.826 9.73858C15.7299 9.73858 15.6521 9.66897 15.6521 9.58299V8.48976C15.6521 8.40378 15.7299 8.33417 15.826 8.33417C15.9222 8.33417 16 8.40378 16 8.48976V9.58299C16 9.66897 15.9222 9.73858 15.826 9.73858ZM15.826 7.55212C15.7299 7.55212 15.6521 7.48252 15.6521 7.39653V6.30331C15.6521 6.21732 15.7299 6.14771 15.826 6.14771C15.9222 6.14771 16 6.21732 16 6.30331V7.39653C16 7.48252 15.9222 7.55212 15.826 7.55212ZM15.826 5.36567C15.7299 5.36567 15.6521 5.29606 15.6521 5.21008V4.11685C15.6521 4.03086 15.7299 3.96126 15.826 3.96126C15.9222 3.96126 16 4.03086 16 4.11685V5.21008C16 5.29606 15.9222 5.36567 15.826 5.36567Z" fill="#3D3D3D"/>
<path d="M15.826 13.8126C15.7299 13.8126 15.6521 13.743 15.6521 13.657V12.8381C15.6521 12.7521 15.7299 12.6825 15.826 12.6825C15.9222 12.6825 16 12.7521 16 12.8381V13.657C16 13.743 15.9222 13.8126 15.826 13.8126Z" fill="#3D3D3D"/>
</g>
<defs>
<clipPath id="clip0_4_1789">
<rect width="16" height="13" fill="white" transform="translate(0 2)"/>
</clipPath>
</defs>
</svg>

<svg xmlns="http://www.w3.org/2000/svg" width="16" height="16" fill="currentColor" class="si si-Ground_area" viewBox="0 0 16 16">
  <g clip-path="url(#a)">
    <path d="M.81 14.427c-.096 0-.174-.07-.174-.156V2.156C.641 2.07.72 2 .81 2c.092 0 .174.07.174.156v12.12c0 .085-.078.155-.174.155z"/>
    <path d="M1.41 3.126a.17.17 0 0 1-.142-.07l-.6-.819a.147.147 0 0 1 .05-.212c.084-.045.189-.025.24.045l.595.819c.05.07.027.167-.05.212a.2.2 0 0 1-.092.025"/>
    <path d="M.17 3.126a.2.2 0 0 1-.092-.024.147.147 0 0 1-.05-.213l.595-.819c.05-.07.155-.09.238-.045.077.045.1.143.05.213l-.595.819a.17.17 0 0 1-.142.07zm15.615 11.301H2.738c-.097 0-.174-.07-.174-.156s.077-.155.174-.155h13.047c.096 0 .174.07.174.155 0 .086-.078.156-.174.156"/>
    <path d="M14.91 15a.2.2 0 0 1-.142-.066c-.054-.07-.036-.163.042-.212l.915-.574a.183.183 0 0 1 .238.037c.055.07.037.164-.04.213l-.916.573a.17.17 0 0 1-.097.029"/>
    <path d="M15.826 14.427a.16.16 0 0 1-.096-.029l-.916-.573c-.078-.05-.096-.143-.04-.213a.18.18 0 0 1 .237-.037l.916.573c.078.05.096.144.041.213a.18.18 0 0 1-.142.066M2.55 2.307h-.916c-.096 0-.174-.07-.174-.155 0-.086.083-.152.174-.152h.916c.096 0 .174.07.174.156s-.078.155-.174.155zm10.204 0h-1.272c-.097 0-.174-.07-.174-.155 0-.086.077-.152.174-.152h1.272c.096 0 .174.07.174.156s-.078.155-.174.155zm-2.55 0H8.932c-.097 0-.174-.07-.174-.155 0-.086.077-.152.174-.152h1.272c.096 0 .174.07.174.156s-.078.155-.174.155zm-2.55 0H6.382c-.096 0-.174-.07-.174-.155 0-.086.082-.152.174-.152h1.272c.096 0 .174.07.174.156s-.078.155-.174.155zm-2.55 0H3.832c-.096 0-.174-.07-.174-.155 0-.086.082-.152.178-.152H5.11c.096 0 .174.07.174.156s-.078.155-.174.155zm9.856 0h-.915c-.096 0-.174-.07-.174-.155 0-.086.078-.152.174-.152h.916c.096 0 .174.07.174.156s-.078.155-.174.155zm.866.86c-.096 0-.174-.07-.174-.156v-.814c0-.086.078-.156.174-.156s.174.07.174.156v.818c0 .086-.078.156-.174.156zm0 8.758c-.096 0-.174-.07-.174-.156v-1.093c0-.086.078-.155.174-.155s.174.07.174.155v1.093c0 .086-.078.156-.174.156m0-2.186c-.096 0-.174-.07-.174-.156V8.49c0-.086.078-.156.174-.156s.174.07.174.156v1.093c0 .086-.078.156-.174.156m0-2.187c-.096 0-.174-.07-.174-.155V6.303c0-.086.078-.155.174-.155s.174.07.174.155v1.094c0 .086-.078.155-.174.155m0-2.186c-.096 0-.174-.07-.174-.156V4.117c0-.086.078-.156.174-.156s.174.07.174.156V5.21c0 .086-.078.156-.174.156m0 8.447c-.096 0-.174-.07-.174-.156v-.819c0-.086.078-.155.174-.155s.174.07.174.155v.819c0 .086-.078.156-.174.156"/>
  </g>
  <defs>
    <clipPath id="a">
      <path d="M0 2h16v13H0z"/>
    </clipPath>
  </defs>
</svg>
